X: 43333
T: Working Man's Friend
R: reel
M: 4/4
K: Eminor
A|Beed efed|gfed BcBA|GEED E2DE|GEED EFGA|
Beed efed|gfed BcBA|GEED B,DGB|AGFG E3:|
B|efga bgeg|fdd2 add2|efga bgaf|edBd e3B|
efga bgeg|fd (3d^cd ad (3d^cd|ecBA GABc|defd e3:|

